X:1432
T:Ihr kleinen V\"ogelein
C:Anton Ernst Kopp
O:Germany
N:First published 1717
Z:Transcribed by Frank Nordberg - http://www.musicaviva.com
F:http://abc.musicaviva.com/tunes/kopp-anton-ernst/kopp-ihr-kleinen-vogelein.abc
M:3/4
L:1/4
K:C
Gcd|B>cd|e(f/e/) (f/g/)|e>dc|
w:Ihr klei-nen V\"o-ge-lein, ihr Wald--er--g\"ot-zer lein,
de(d/e/)|c>BA|Bd(G/A/)|^F>GG|
w:ihr s\"u-\ssen_ S\"an-ger lein, stimmt mit mir_ \"u-ber-ein:
G c/d/ e/e/|AA z|Ad/e/ f/f/|BB z|
w:Ich will den Her-ren prei-sen mit mei-nen Lie-bes-wei-sen,
Gcd|B>cd|eg(c/d/)|B>cc|]
w:ich will von Her-zens-grund ihm auf-tun_ mei-nen Mund.
W:
W:Ihr kleinen V\"ogelein,
W:ihr Walderg\"otzer lein,
W:ihr s\"u\ssen S\"anger lein,
W:stimmt mit mir \"uberein:
W:  Ich will den Herren preisen
W:  mit meinen Liebesweisen,
W:  ich will von Herzensgrund
W:  ihm auftun meinen Mund.
W:
W:
W:  From Musica Viva - http://www.musicaviva.com
W:  the Internet center for free sheet music downloads.

